X:1
T:Jesus Will Save You Now
T:Jesus Will Save You Now
T:Howard E. Smith
T:M. Louise Smith, 1899
T:Public Domain Courtesy of the Cyber Hymnal™
C:Howard E. Smith
Z:Public Domain
Z:Courtesy of the Cyber Hymnal™
%%score ( 1 2 ) ( 3 4 )
L:1/8
Q:1/4=100
M:6/8
K:Ab
V:1 treble 
V:2 treble 
V:3 bass 
V:4 bass 
V:1
 [CE][CE][CE] [CE][A,C][CE] | [CA]2 [DB] [Ec]3 | [DB]>[DB][DB] [DB]2 [Ec] | A3- [CA]2 z | %4
w: 1.~Bro- ther, give heed to the|Mas- ter’s call,|Je- sus will save you|now! Come|
w: 2.~What tho’ your life has been|stained by sin,|Je- sus will save you|now! Just|
w: 3.~No one knows more of your|pain than He,|Je- sus will save you|now; See!|
w: 4.~Bro- ther, de- fer not— this|joy re- ceive,|Je- sus will save you|now; New|
 [CE][CE][CE] [CE][A,C][CE] | [CA]2 [DB] [Ec]3 | [DB]>[DB][DB] [DB]2 [Ec] | A3- [CA]2 z || %8
w: * and con- fess— He’ll for-|give you all,|Je- sus will save you|now. *|
w: * such as you can be|cleansed by Him,|Je- sus will save you|now. Yes,|
w: * now He pleads to give|help so free,|Je- sus will save you|now. *|
w: * life you’ll find if you|but be- lieve,|Je- sus will save you|now. *|
"^Refrain" [DF]>[Fd][Fd] [Fd]2 [DF] | [CE]>[Ec][Ec] [Ec]3 | [EB]>[E=A][EB] [Ge]2 [Gd] | %11
w: |||
w: * He will save! O|yes, He will save!|Je- sus will save you|
w: |||
w: |||
 [Ac]3- [Ac]2 z | [CE]>[B,=D][CE] [Ec][D=B][Ec] | [DF]2 [DF] [FB]3 | [EA]>[EG][EA] [Ec]2 [DB] | %15
w: ||||
w: now; *|It was for you that His|life He gave,|Je- sus will save you|
w: ||||
w: ||||
 A3- [CA]2 z |] %16
w: |
w: now. *|
w: |
w: |
V:2
 x6 | x6 | x6 | C2 D x3 | x6 | x6 | x6 | C2 D x3 || x6 | x6 | x6 | x6 | x6 | x6 | x6 | C2 D x3 |] %16
V:3
 [A,,A,][A,,A,][A,,A,] [A,,A,][A,,E,][A,,A,] | [A,,E,]2 [A,,A,] [A,,A,]3 | %2
 [E,G,]>[E,G,][E,G,] [E,G,]2 [E,G,] | (A,2 F, [A,,E,]2) z | %4
 [A,,A,][A,,A,][A,,A,] [A,,A,][A,,E,][A,,A,] | [A,,E,]2 [A,,A,] [A,,A,]3 | %6
 [E,G,]>[E,G,][E,G,] [E,G,]2 [E,G,] | (A,2 F, [A,,E,]2) z || [D,A,]>[D,A,][D,A,] [D,A,]2 [D,A,] | %9
 [A,,A,]>[A,,A,][A,,A,] [A,,A,]3 | [E,G,]>[E,^F,][E,G,] [E,B,]2 [E,E] | [A,E]2 [A,E] [A,E]2 z | %12
 [A,,A,]>[A,,A,][A,,A,] [A,,A,][A,,A,][A,,A,] | [D,A,]2 [D,A,] [B,,D]3 | %14
 [E,C]>[E,B,][E,C] [E,A,]2 [E,G,] | (A,2 F, [A,,E,]2) z |] %16
V:4
 x6 | x6 | x6 | A,,3- x3 | x6 | x6 | x6 | A,,3- x3 || x6 | x6 | x6 | x6 | x6 | x6 | x6 | %15
 A,,3- x3 |] %16

